communes/336.svg

<?xml version="1.0" encoding="UTF-8" standalone="no"?>
<svg
   xmlns:i="http://ns.adobe.com/AdobeIllustrator/10.0/"
   xmlns:dc="http://purl.org/dc/elements/1.1/"
   xmlns:cc="http://web.resource.org/cc/"
   xmlns:rdf="http://www.w3.org/1999/02/22-rdf-syntax-ns#"
   xmlns:svg="http://www.w3.org/2000/svg"
   xmlns="http://www.w3.org/2000/svg"
   xmlns:xlink="http://www.w3.org/1999/xlink"
   xmlns:sodipodi="http://sodipodi.sourceforge.net/DTD/sodipodi-0.dtd"
   xmlns:inkscape="http://www.inkscape.org/namespaces/inkscape"
   height="763"
   width="603"
   version="1.0"
   id="svg20"
   sodipodi:version="0.32"
   inkscape:version="0.44.1"
   sodipodi:docname="Reisiswil-coat of arms.svg"
   sodipodi:docbase="F:\Mis Documentos\Mis imágenes\Encyclopédie\Escudos de Suiza">
  <metadata
     id="metadata31">
    <rdf:RDF>
      <cc:Work
         rdf:about="">
        <dc:format>image/svg+xml</dc:format>
        <dc:type
           rdf:resource="http://purl.org/dc/dcmitype/StillImage" />
        <dc:date>07-AUG-2006</dc:date>
        <dc:creator>
          <cc:Agent>
            <dc:title>Jérôme BLUM (wagner51)</dc:title>
          </cc:Agent>
        </dc:creator>
        <cc:license
           rdf:resource="http://creativecommons.org/licenses/GPL/2.0/" />
        <dc:coverage />
        <dc:description>Gabarit pour le Projet:Blasons de WIkipédia</dc:description>
        <dc:subject>
          <rdf:Bag>
            <rdf:li>blason suisse modèle gabarit projet blasons</rdf:li>
          </rdf:Bag>
        </dc:subject>
        <dc:language>fr</dc:language>
        <dc:title>Gabrit d'un blason suisse</dc:title>
      </cc:Work>
      <cc:License
         rdf:about="http://creativecommons.org/licenses/GPL/2.0/">
        <cc:permits
           rdf:resource="http://web.resource.org/cc/Reproduction" />
        <cc:permits
           rdf:resource="http://web.resource.org/cc/Distribution" />
        <cc:requires
           rdf:resource="http://web.resource.org/cc/Notice" />
        <cc:permits
           rdf:resource="http://web.resource.org/cc/DerivativeWorks" />
        <cc:requires
           rdf:resource="http://web.resource.org/cc/ShareAlike" />
        <cc:requires
           rdf:resource="http://web.resource.org/cc/SourceCode" />
      </cc:License>
    </rdf:RDF>
  </metadata>
  <defs
     id="defs29">
    <linearGradient
       id="linearGradient2893">
      <stop
         style="stop-color:#ffffff;stop-opacity:0.3137255;"
         offset="0"
         id="stop2895" />
      <stop
         id="stop2897"
         offset="0.19"
         style="stop-color:#ffffff;stop-opacity:0.25098041;" />
      <stop
         style="stop-color:#6b6b6b;stop-opacity:0.1254902;"
         offset="0.60000002"
         id="stop2901" />
      <stop
         style="stop-color:#000000;stop-opacity:0.1254902;"
         offset="1"
         id="stop2899" />
    </linearGradient>
    <linearGradient
       id="linearGradient2955">
      <stop
         style="stop-color:white;stop-opacity:0;"
         offset="0"
         id="stop2965" />
      <stop
         style="stop-color:black;stop-opacity:0.64583331;"
         offset="1"
         id="stop2959" />
    </linearGradient>
    <radialGradient
       inkscape:collect="always"
       xlink:href="#linearGradient2893"
       id="radialGradient3236"
       gradientUnits="userSpaceOnUse"
       gradientTransform="matrix(1.215027,1.531577e-24,1.464684e-23,1.266667,-839.1924,-490.4894)"
       cx="858.04236"
       cy="579.93323"
       fx="858.04236"
       fy="579.93323"
       r="300" />
  </defs>
  <sodipodi:namedview
     inkscape:window-height="682"
     inkscape:window-width="1024"
     inkscape:pageshadow="2"
     inkscape:pageopacity="0.0"
     guidetolerance="10.0"
     gridtolerance="10.0"
     objecttolerance="10.0"
     borderopacity="1.0"
     bordercolor="#666666"
     pagecolor="#ffffff"
     id="base"
     inkscape:zoom="0.47447388"
     inkscape:cx="711.17379"
     inkscape:cy="267.30636"
     inkscape:window-x="-4"
     inkscape:window-y="-4"
     inkscape:current-layer="layer2"
     showgrid="true"
     showguides="true"
     inkscape:guide-bbox="true" />
  <desc
     id="desc22">Coat of Arms of Canton of Freiburg (Fribourg)</desc>
  <g
     inkscape:groupmode="layer"
     id="layer1"
     inkscape:label="Fond écu"
     sodipodi:insensitive="true">
    <path
       id="path1899"
       d="M 1.5,1.49998 L 1.5,460.3679 C 1.5,626.6785 135.81456,761.5 301.49999,761.5 C 467.18543,761.5 601.5,626.6785 601.5,460.3679 L 601.5,1.49998 L 1.5,1.49998 z "
       style="fill:white;fill-opacity:1" />
  </g>
  <g
     inkscape:groupmode="layer"
     id="layer2"
     inkscape:label="Meubles"
     sodipodi:insensitive="true">
    <g
       style="display:inline"
       id="g16309"
       transform="translate(-8.8e-2,0.285196)">
      <path
         sodipodi:nodetypes="csscsssccccsc"
         id="path16311"
         d="M 295.4375,499.21492 C 242.42299,500.24432 202.69011,520.33057 198.71875,554.21875 C 198.71875,554.21876 121.45623,508.57707 58.3125,575.21875 C 49.204271,584.83152 42.701396,594.85014 38.375,605.0625 C 86.790602,693.58496 178.21963,755.02133 284.4375,761 C 284.47903,761.00234 284.52097,760.99768 284.5625,761 C 289.68792,761.13766 294.80655,761.1875 299.96875,761.1875 C 307.27592,761.18748 314.57403,761.05171 321.8125,760.78125 C 425.37971,753.83077 514.53024,694.14339 562.875,608.21875 C 558.59491,596.91072 551.73763,585.82563 541.6875,575.21875 C 478.548,508.57701 401.25,554.21875 401.25,554.21875 C 396.09022,525.18869 357.09107,500.43029 300.65625,499.24617 C 298.89266,499.20917 297.14765,499.18171 295.4375,499.21492 z "
         style="fill:#5ab532;fill-opacity:1;stroke:black;stroke-width:3;stroke-miterlimit:4;stroke-dasharray:none;stroke-opacity:1" />
      <path
         id="path16313"
         d="M 302.12078,761.18682 C 297.22941,760.78669 417.57875,690.55769 402.1587,553.45937"
         i:knockout="Off"
         style="fill:none;stroke:black;stroke-width:3;stroke-linecap:round;stroke-linejoin:round;stroke-miterlimit:4;stroke-dasharray:none"
         sodipodi:nodetypes="cc" />
      <path
         id="path16315"
         d="M 296.8843,761.18682 C 297.1953,762.89953 183.83721,672.67498 197.78063,557.85118"
         i:knockout="Off"
         style="fill:none;stroke:black;stroke-width:3;stroke-linecap:round;stroke-linejoin:round;stroke-miterlimit:4;stroke-dasharray:none"
         sodipodi:nodetypes="cs" />
    </g>
    <g
       id="g27003"
       transform="matrix(4.035077,0,0,4.035077,-2544.882,-2315.656)">
      <path
         sodipodi:nodetypes="cccss"
         id="path17245"
         d="M 710.3578,701.57795 C 712.60772,681.69578 722.52397,613.32767 722.52397,613.32767 L 688.74771,623.71559 C 688.74771,623.71559 694.29925,678.96731 695.89449,700.67433 C 696.17927,704.54945 709.87502,705.84419 710.3578,701.57795 z "
         style="fill:black;fill-opacity:1;fill-rule:evenodd;stroke:black;stroke-width:1px;stroke-linecap:butt;stroke-linejoin:miter;stroke-opacity:1" />
      <path
         sodipodi:nodetypes="cscccccccccccccccccccccccccccccccscccccc"
         id="path21683"
         d="M 719.1145,635.723 C 726.21365,638.90927 728.9838,645.12515 734.08172,647.97456 C 759.52753,662.19709 761.24944,631.43426 774.30099,628.6325 C 761.51603,621.42176 756.33039,628.26977 750,633 C 765.52666,620.63962 749.55459,602.32263 764.42749,594.265 C 750.69025,592.20141 746.73392,599.2201 742.1505,605.6565 C 743.27962,618.1261 746.91621,639.26285 725.6325,631.8615 C 746.84447,639.28487 743.36983,618.14728 742.1505,605.6565 C 740.7376,597.90093 737.35105,590.4414 742.277,581.735 C 732.06752,584.10282 729.16036,592.69112 727.976,602.747 C 729.3089,610.10792 727.8768,614.88815 726.771,618 C 727.9192,614.92007 729.27402,610.06258 727.976,602.747 C 725.98609,595.42391 721.98474,588.35224 725,580.4035 C 720.65269,582.55967 717.83099,587.09492 714.494,591.6085 C 705.7065,604.7898 716.12364,613.66431 720.8855,623.3795 C 716.05388,613.55436 705.71482,604.71897 714.494,591.6085 C 715.12576,584.68352 711.93303,579.49694 701.45801,577.6205 C 706.24536,582.70483 704.70021,587.91567 701.1385,593.6325 C 698.46077,597.99157 693.59985,601.31649 696.8975,608.506 C 693.56777,601.39031 698.35717,598.00809 701.1385,593.6325 C 699.33955,587.08501 696.15458,581.42457 686.012,580.217 C 692.23979,588.16406 685.31975,593.22902 682.6565,599.20501 C 675.75697,618.40816 696.33458,613.589 706.8375,616.8615 C 696.40942,613.59341 675.79632,618.35176 682.6565,599.20501 C 679.36424,592.82714 678.14581,585.90352 668.8615,581.1025 C 673.78432,591.42499 667.98642,596.66552 665.8855,603.8855 C 657.1507,627.07449 683.97876,628.84475 688.8615,626.229 C 684.00638,628.74781 657.3109,627.05276 665.8855,603.8855 C 662.00887,592.66812 645,593 645,593 C 656.46011,600.47678 646.55844,614.14371 652.3435,625.723 C 659.11016,635.12593 668.25653,635.75543 675.6325,632.494 C 668.27883,635.76903 659.0227,635.09653 652.3435,625.723 C 646.21635,622.67613 642.60308,624.13257 636.518,627.494 C 649.70801,635.72475 649.58141,652.31664 664.11924,651.51522 C 673.2738,651.00612 681.15512,637.64636 689.8735,636.036 L 688.8615,626.229 C 698.45679,625.79184 702.09531,630.98341 701.3915,639.6445 C 710.94734,635.98443 721.35884,627.32579 706.8375,616.8615 C 712.25878,618.47372 716.95773,620.37376 720.8855,623.3795 L 719.1145,635.723 z "
         style="fill:#e20909;fill-opacity:1;fill-rule:evenodd;stroke:black;stroke-width:1px;stroke-linecap:butt;stroke-linejoin:miter;stroke-opacity:1" />
      <path
         sodipodi:nodetypes="ccccc"
         id="path18132"
         d="M 709.8211,636.38992 L 705.1789,700.32567 L 707.49543,700.14677 L 712.67433,636.56882 L 709.8211,636.38992 z "
         style="fill:white;fill-opacity:1;fill-rule:evenodd;stroke:white;stroke-width:1px;stroke-linecap:butt;stroke-linejoin:miter;stroke-opacity:1" />
      <path
         sodipodi:nodetypes="ccccc"
         id="path19019"
         d="M 695,631.56882 L 698.38992,632.46331 L 701.25228,700.67433 L 698.92661,699.78898 L 695,631.56882 z "
         style="fill:white;fill-opacity:1;fill-rule:evenodd;stroke:white;stroke-width:1px;stroke-linecap:butt;stroke-linejoin:miter;stroke-opacity:1" />
      <path
         sodipodi:nodetypes="ccc"
         id="path19906"
         d="M 714.14246,681.2258 C 727.00826,670.98039 696.06861,672.46929 692.32567,665.86236 C 681.66208,676.43719 712.5711,672.50551 714.14246,681.2258 z "
         style="fill:black;fill-opacity:1;fill-rule:evenodd;stroke:white;stroke-width:1px;stroke-linecap:butt;stroke-linejoin:miter;stroke-opacity:1" />
      <path
         sodipodi:nodetypes="ccc"
         id="path20794"
         d="M 716.99743,658 C 727.41316,641.91843 695.08361,651.05475 689.43375,639.97527 C 675.8505,653.03064 715.00263,647.99843 716.99743,658 z "
         style="fill:black;fill-opacity:1;fill-rule:evenodd;stroke:white;stroke-width:1px;stroke-linecap:butt;stroke-linejoin:miter;stroke-opacity:1" />
    </g>
  </g>
  <g
     inkscape:groupmode="layer"
     id="layer3"
     inkscape:label="Reflet final"
     style="display:inline"
     sodipodi:insensitive="true">
    <path
       style="fill:url(#radialGradient3236);fill-opacity:1"
       d="M 1.5,1.5 L 1.5,460.3679 C 1.5,626.67854 135.81454,761.5 301.49993,761.5 C 467.1854,761.5 601.5,626.67854 601.5,460.3679 L 601.5,1.5 L 1.5,1.5 z "
       id="path2346" />
  </g>
  <g
     inkscape:groupmode="layer"
     id="layer4"
     inkscape:label="Contour final"
     style="display:inline"
     sodipodi:insensitive="true">
    <path
       style="fill:none;fill-opacity:1;stroke:#000000;stroke-width:3;stroke-miterlimit:4;stroke-dasharray:none;stroke-opacity:1"
       d="M 1.5,1.5 L 1.5,460.36794 C 1.5,626.67854 135.81454,761.5 301.49993,761.5 C 467.1854,761.5 601.5,626.67854 601.5,460.36794 L 601.5,1.5 L 1.5,1.5 z "
       id="path3239" />
  </g>
</svg>

<?xml version="1.0" encoding="UTF-8"?>
<svg version="1.0" viewBox="0 0 603 763" xmlns="http://www.w3.org/2000/svg" xmlns:cc="http://web.resource.org/cc/" xmlns:dc="http://purl.org/dc/elements/1.1/" xmlns:rdf="http://www.w3.org/1999/02/22-rdf-syntax-ns#" xmlns:xlink="http://www.w3.org/1999/xlink">
<metadata>
<rdf:RDF>
<cc:Work rdf:about="">
<dc:format>image/svg+xml</dc:format>
<dc:type rdf:resource="http://purl.org/dc/dcmitype/StillImage"/>
<dc:date>07-AUG-2006</dc:date>
<dc:creator>
<cc:Agent>
<dc:title>Jérôme BLUM (wagner51)</dc:title>
</cc:Agent>
</dc:creator>
<cc:license rdf:resource="http://creativecommons.org/licenses/GPL/2.0/"/>
<dc:coverage/>
<dc:description>Gabarit pour le Projet:Blasons de WIkipédia</dc:description>
<dc:subject>
<rdf:Bag>
<rdf:li>blason suisse modèle gabarit projet blasons</rdf:li>
</rdf:Bag>
</dc:subject>
<dc:language>fr</dc:language>
<dc:title>Gabrit d'un blason suisse</dc:title>
</cc:Work>
<cc:License rdf:about="http://creativecommons.org/licenses/GPL/2.0/">
<cc:permits rdf:resource="http://web.resource.org/cc/Reproduction"/>
<cc:permits rdf:resource="http://web.resource.org/cc/Distribution"/>
<cc:requires rdf:resource="http://web.resource.org/cc/Notice"/>
<cc:permits rdf:resource="http://web.resource.org/cc/DerivativeWorks"/>
<cc:requires rdf:resource="http://web.resource.org/cc/ShareAlike"/>
<cc:requires rdf:resource="http://web.resource.org/cc/SourceCode"/>
</cc:License>
</rdf:RDF>
</metadata>
<defs>
<radialGradient id="a" cx="858.04" cy="579.93" r="300" gradientTransform="matrix(1.215 1.5316e-24 1.4647e-23 1.2667 -839.19 -490.49)" gradientUnits="userSpaceOnUse">
<stop stop-color="#fff" stop-opacity=".31373" offset="0"/>
<stop stop-color="#fff" stop-opacity=".25098" offset=".19"/>
<stop stop-color="#6b6b6b" stop-opacity=".12549" offset=".6"/>
<stop stop-opacity=".12549" offset="1"/>
</radialGradient>
</defs>
<desc>Coat of Arms of Canton of Freiburg (Fribourg)</desc>
<path d="m1.5 1.5v458.87c0 166.31 134.31 301.13 300 301.13 165.69 0 300-134.82 300-301.13v-458.87h-600z" fill="#fff"/>
<g transform="translate(-.088 .2852)" stroke="#000" stroke-width="3">
<path d="m295.44 499.21c-53.015 1.0294-92.747 21.116-96.719 55.004 0 1e-5 -77.263-45.642-140.41 21-9.1082 9.6128-15.611 19.631-19.938 29.844 48.416 88.522 139.84 149.96 246.06 155.94 0.04153 0.00234 0.08347-0.00232 0.125 0 5.1254 0.13766 10.244 0.1875 15.406 0.1875 7.3072-2e-5 14.605-0.13579 21.844-0.40625 103.57-6.9505 192.72-66.638 241.06-152.56-4.2801-11.308-11.137-22.393-21.188-33-63.14-66.642-140.44-21-140.44-21-5.1598-29.03-44.159-53.788-100.59-54.973-1.7636-0.037-3.5086-0.06446-5.2188-0.03125z" fill="#5ab532"/>
<path d="m302.12 761.19c-4.8914-0.40013 115.46-70.629 100.04-207.73" fill="none" stroke-linecap="round" stroke-linejoin="round"/>
<path d="m296.88 761.19c0.311 1.7127-113.05-88.512-99.104-203.34" fill="none" stroke-linecap="round" stroke-linejoin="round"/>
</g>
<g transform="matrix(4.0351 0 0 4.0351 -2544.9 -2315.7)" fill-rule="evenodd" stroke-width="1px">
<path d="m710.36 701.58c2.2499-19.882 12.166-88.25 12.166-88.25l-33.776 10.388s5.5515 55.252 7.1468 76.959c0.28478 3.8751 13.981 5.1699 14.463 0.90362z" stroke="#000"/>
<path d="m719.11 635.72c7.0992 3.1863 9.8693 9.4022 14.967 12.252 25.446 14.223 27.168-16.54 40.219-19.342-12.785-7.2107-17.971-0.36273-24.301 4.3675 15.527-12.36-0.44541-30.677 14.427-38.735-13.737-2.0636-17.694 4.9551-22.277 11.392 1.1291 12.47 4.7657 33.606-16.518 26.205 21.212 7.4234 17.737-13.714 16.518-26.205-1.4129-7.7556-4.7994-15.215 0.1265-23.922-10.209 2.3678-13.117 10.956-14.301 21.012 1.3329 7.3609-0.0992 12.141-1.205 15.253 1.1482-3.0799 2.503-7.9374 1.205-15.253-1.9899-7.3231-5.9913-14.395-2.976-22.344-4.3473 2.1562-7.169 6.6914-10.506 11.205-8.7875 13.181 1.6296 22.056 6.3915 31.771-4.8316-9.8251-15.171-18.661-6.3915-31.771 0.63176-6.925-2.561-12.112-13.036-13.988 4.7874 5.0843 3.2422 10.295-0.31951 16.012-2.6777 4.3591-7.5386 7.684-4.241 14.874-3.3297-7.1157 1.4597-10.498 4.241-14.874-1.799-6.5475-4.9839-12.208-15.126-13.416 6.2278 7.9471-0.69225 13.012-3.3555 18.988-6.8995 19.203 13.678 14.384 24.181 17.656-10.428-3.2681-31.041 1.4903-24.181-17.656-3.2923-6.3779-4.5107-13.301-13.795-18.103 4.9228 10.322-0.87508 15.563-2.976 22.783-8.7348 23.189 18.093 24.959 22.976 22.344-4.8551 2.5188-31.551 0.82376-22.976-22.344-3.8766-11.217-20.886-10.886-20.886-10.886 11.46 7.4768 1.5584 21.144 7.3435 32.723 6.7667 9.4029 15.913 10.032 23.289 6.771-7.3537 3.275-16.61 2.6025-23.289-6.771-6.1272-3.0469-9.7404-1.5904-15.826 1.771 13.19 8.2308 13.063 24.823 27.601 24.021 9.1546-0.5091 17.036-13.869 25.754-15.479l-1.012-9.807c9.5953-0.43716 13.234 4.7544 12.53 13.416 9.5558-3.6601 19.967-12.319 5.446-22.783 5.4213 1.6122 10.12 3.5123 14.048 6.518l-1.771 12.344z" fill="#e20909" stroke="#000"/>
<path d="m709.82 636.39-4.6422 63.936 2.3165-0.1789 5.1789-63.578-2.8532-0.1789z" fill="#fff" stroke="#fff"/>
<path d="m695 631.57 3.3899 0.89449 2.8624 68.211-2.3257-0.88535-3.9266-68.22z" fill="#fff" stroke="#fff"/>
<path d="m714.14 681.23c12.866-10.245-18.074-8.7565-21.817-15.363-10.664 10.575 20.245 6.6432 21.817 15.363z" stroke="#fff"/>
<path d="m717 658c10.416-16.082-21.914-6.9452-27.564-18.025-13.583 13.055 25.569 8.0232 27.564 18.025z" stroke="#fff"/>
</g>
<g>
<path d="m1.5 1.5v458.87c0 166.31 134.31 301.13 300 301.13 165.69 0 300-134.82 300-301.13v-458.87h-600z" fill="url(#a)"/>
<path d="m1.5 1.5v458.87c0 166.31 134.31 301.13 300 301.13 165.69 0 300-134.82 300-301.13v-458.87h-600z" fill="none" stroke="#000" stroke-width="3"/>
</g>
</svg>
